fs/desktop_pulse_28_filled.svg

<svg viewBox="0 0 28 28" fill="none" xmlns="http://www.w3.org/2000/svg" height="1em" width="1em">
  <path d="M8.25 25H19.75L19.8518 24.9932C20.2178 24.9435 20.5 24.6297 20.5 24.25L20.4932 24.1482C20.4435 23.7822 20.1297 23.5 19.75 23.5L17.998 23.4996V21.0016L23.7488 21.0019C24.9915 21.0019 25.9988 19.9946 25.9988 18.752V14.5003H19.75C19.0871 14.5003 18.4812 14.1258 18.1848 13.5329L18.0543 13.2721L16.0858 17.4903C15.7908 18.1225 15.1483 18.5191 14.4509 18.4995C13.7535 18.4799 13.1343 18.0479 12.8752 17.4001L10.4336 11.2964L9.49951 13.4474C9.22188 14.0867 8.59133 14.5003 7.89434 14.5003H2V18.752C2 19.9946 3.00736 21.0019 4.25 21.0019L10 21.0016V23.4996L8.25 23.5L8.14823 23.5069C7.78215 23.5565 7.5 23.8703 7.5 24.25C7.5 24.6642 7.83579 25 8.25 25ZM11.5 21.0016H16.498L16.4988 23.5H11.5V21.0016ZM20.8316 11.0003H25.9988V5.24996C25.9988 4.00734 24.9915 3 23.7488 3H4.25C3.00736 3 2 4.00734 2 5.24996V11.0003H6.74643L8.89483 6.05334C9.17616 5.40553 9.81934 4.99033 10.5255 5.00064C11.2317 5.01095 11.8625 5.44475 12.1248 6.10049L14.6236 12.3472L16.4142 8.51033C16.6981 7.90195 17.305 7.50963 17.9764 7.50056C18.6477 7.49149 19.265 7.86727 19.5652 8.46776L20.8316 11.0003ZM11.1964 6.47188C11.0839 6.19084 10.8136 6.00493 10.5109 6.00051C10.2083 5.99609 9.93264 6.17403 9.81207 6.45167L7.40238 12.0003H2.75C2.33579 12.0003 2 12.3361 2 12.7503C2 13.1645 2.33579 13.5003 2.75 13.5003H7.89434C8.19305 13.5003 8.46328 13.323 8.58227 13.049L10.4716 8.69871L13.8036 17.0288C13.9147 17.3064 14.1801 17.4915 14.479 17.4999C14.7779 17.5083 15.0532 17.3383 15.1796 17.0674L18.0233 10.974L19.0792 13.0857C19.2062 13.3398 19.4659 13.5003 19.75 13.5003H25.25C25.6642 13.5003 26 13.1645 26 12.7503C26 12.3361 25.6642 12.0003 25.25 12.0003H20.2135L18.6708 8.91496C18.5421 8.65761 18.2776 8.49656 17.9899 8.50045C17.7022 8.50433 17.442 8.67247 17.3204 8.93321L14.553 14.8632L11.1964 6.47188Z" fill="#212121"/>
</svg>

<svg viewBox="0 0 28 28" fill="none" xmlns="http://www.w3.org/2000/svg" height="1em" width="1em">
  <path d="M8.25 25h11.5l.102-.007a.75.75 0 0 0 .648-.743l-.007-.102a.75.75 0 0 0-.743-.648h-1.752v-2.498h5.75a2.25 2.25 0 0 0 2.25-2.25V14.5H19.75a1.75 1.75 0 0 1-1.565-.967l-.13-.26-1.97 4.217a1.75 1.75 0 0 1-3.21-.09l-2.441-6.104-.934 2.151A1.75 1.75 0 0 1 7.894 14.5H2v4.252a2.25 2.25 0 0 0 2.25 2.25H10V23.5H8.25l-.102.007A.75.75 0 0 0 8.25 25Zm3.25-3.998h4.998V23.5H11.5v-2.498ZM20.832 11h5.167V5.25A2.25 2.25 0 0 0 23.749 3H4.25A2.25 2.25 0 0 0 2 5.25V11h4.746l2.149-4.947a1.75 1.75 0 0 1 3.23.047l2.499 6.247 1.79-3.837a1.75 1.75 0 0 1 3.151-.042L20.832 11Zm-9.636-4.528a.75.75 0 0 0-1.384-.02L7.402 12H2.75a.75.75 0 0 0 0 1.5h5.144a.75.75 0 0 0 .688-.451l1.89-4.35 3.332 8.33a.75.75 0 0 0 1.376.038l2.843-6.093 1.056 2.112a.75.75 0 0 0 .671.414h5.5a.75.75 0 0 0 0-1.5h-5.037l-1.542-3.085a.75.75 0 0 0-1.35.018l-2.768 5.93-3.357-8.391Z" fill="#212121"/>
</svg>
